tipitek/img/manager-icon-3.svg

<svg width="60" height="61" viewBox="0 0 60 61" fill="none" xmlns="http://www.w3.org/2000/svg">
<rect y="0.997009" width="60" height="59.997" rx="13.0472" fill="#E65069" fill-opacity="0.1"/>
<g clip-path="url(#clip0_437_1069)">
<path fill-rule="evenodd" clip-rule="evenodd" d="M30.0059 12.8062C31.2218 12.8056 32.4347 12.9264 33.6266 13.1668C33.9742 13.2368 34.1991 13.5754 34.129 13.9229C34.0589 14.2705 33.7203 14.4954 33.3728 14.4253C32.2645 14.2018 31.1368 14.0895 30.0062 14.0901L30.0059 14.0901C20.6692 14.0901 13.1004 21.6586 13.1004 30.9948C13.1004 34.9367 14.4491 38.5619 16.7107 41.4369C17.8286 40.7932 19.2811 40.9492 20.2368 41.9049C21.379 43.0469 21.379 44.8986 20.2368 46.0407C19.0947 47.1827 17.243 47.1827 16.1008 46.0407C15.0852 45.0251 14.9727 43.4486 15.7632 42.3087C13.293 39.2033 11.8164 35.2708 11.8164 30.9948C11.8164 20.9496 19.9599 12.8064 30.0056 12.8062M43.0032 16.8568C42.3625 16.2162 41.3237 16.2162 40.683 16.8568C40.0423 17.4975 40.0423 18.5362 40.683 19.1769C41.3237 19.8176 42.3625 19.8176 43.0032 19.1769C43.6439 18.5362 43.6439 17.4975 43.0032 16.8568ZM39.7751 15.949C40.9172 14.8069 42.7689 14.8069 43.9111 15.949C44.9267 16.9646 45.0392 18.5412 44.2486 19.6811C46.7187 22.7864 48.1952 26.7189 48.1952 30.9948C48.1952 41.0399 40.0517 49.1832 30.0061 49.1834C28.8018 49.184 27.6005 49.0655 26.4196 48.8298C26.0719 48.7604 25.8463 48.4222 25.9157 48.0746C25.9851 47.7269 26.3232 47.5013 26.6709 47.5707C27.7689 47.7899 28.8858 47.9 30.0054 47.8995H30.0057C39.3424 47.8995 46.9113 40.331 46.9113 30.9948C46.9113 27.053 45.5626 23.4278 43.3011 20.5528C42.1832 21.1964 40.7307 21.0404 39.7751 20.0848C38.6329 18.9427 38.6329 17.0911 39.7751 15.949ZM27.1339 18.7264C27.1339 18.3719 27.4213 18.0845 27.7759 18.0845H32.2361C32.5907 18.0845 32.8781 18.3719 32.8781 18.7264V20.1516C33.8452 20.4072 34.7736 20.7918 35.6381 21.2951L36.6457 20.2876C36.8963 20.0369 37.3027 20.0369 37.5534 20.2874L40.7083 23.4399C40.8288 23.5602 40.8965 23.7236 40.8965 23.8938C40.8965 24.0641 40.8289 24.2275 40.7085 24.3479L39.6998 25.3566C40.2031 26.2211 40.5878 27.1494 40.8435 28.1165H42.2762C42.6308 28.1165 42.9182 28.4039 42.9182 28.7584V33.2184C42.9182 33.5729 42.6308 33.8603 42.2762 33.8603H40.8436C40.5879 34.8274 40.2032 35.7558 39.6999 36.6203L40.7138 37.6341C40.9644 37.8847 40.9645 38.2911 40.7139 38.5418L37.5613 41.6966C37.4409 41.8171 37.2776 41.8848 37.1073 41.8848C36.937 41.8849 36.7736 41.8172 36.6532 41.6968L35.6382 40.6818C34.7737 41.1851 33.8453 41.5698 32.8781 41.8255V43.2632C32.8781 43.6177 32.5907 43.9051 32.2361 43.9051H27.7759C27.4213 43.9051 27.1339 43.6177 27.1339 43.2632V41.8255C26.1667 41.5698 25.2383 41.1851 24.3738 40.6818L23.3588 41.6968C23.2384 41.8172 23.075 41.8849 22.9047 41.8848C22.7344 41.8848 22.5711 41.8171 22.4507 41.6966L19.2981 38.5418C19.0475 38.2911 19.0476 37.8847 19.2983 37.6341L20.3121 36.6203C19.8088 35.7558 19.4241 34.8274 19.1685 33.8603H17.7358C17.5655 33.8603 17.4021 33.7926 17.2817 33.6722C17.1613 33.5517 17.0937 33.3883 17.0938 33.218L17.0962 28.7581C17.0964 28.4037 17.3838 28.1165 17.7382 28.1165H19.1685C19.4242 27.1494 19.8089 26.2211 20.3122 25.3566L19.3035 24.3479C19.1831 24.2275 19.1155 24.0641 19.1155 23.8938C19.1155 23.7236 19.1832 23.5602 19.3037 23.4399L22.4586 20.2874C22.7093 20.0369 23.1157 20.0369 23.3663 20.2876L24.3739 21.2951C25.2384 20.7918 26.1668 20.4072 27.1339 20.1516V18.7264ZM28.4179 19.3684V20.6578C28.4179 20.9603 28.2066 21.2218 27.9108 21.2854C26.7427 21.5363 25.6299 21.9974 24.6266 22.6461C24.3725 22.8105 24.0381 22.775 23.8241 22.561L22.9122 21.6492L20.6655 23.8941L21.5781 24.8068C21.7921 25.0208 21.8276 25.3551 21.6633 25.6093C21.0145 26.6125 20.5534 27.7253 20.3024 28.8933C20.2388 29.1891 19.9773 29.4004 19.6747 29.4004H18.3799L18.3781 32.5764H19.6747C19.9772 32.5764 20.2387 32.7877 20.3023 33.0835C20.5533 34.2516 21.0145 35.3643 21.6632 36.3676C21.8275 36.6218 21.7921 36.9561 21.5781 37.1701L20.6599 38.0882L22.905 40.3348L23.8239 39.4159C24.0379 39.2019 24.3723 39.1664 24.6265 39.3307C25.6298 39.9795 26.7426 40.4406 27.9108 40.6916C28.2066 40.7552 28.4179 41.0167 28.4179 41.3193V42.6212H31.5941V41.3193C31.5941 41.0167 31.8054 40.7552 32.1012 40.6916C33.2694 40.4406 34.3822 39.9795 35.3855 39.3307C35.6397 39.1664 35.9741 39.2019 36.1881 39.4159L37.107 40.3348L39.3521 38.0882L38.4339 37.1701C38.2199 36.9561 38.1845 36.6218 38.3488 36.3676C38.9975 35.3643 39.4587 34.2516 39.7097 33.0835C39.7733 32.7877 40.0348 32.5764 40.3373 32.5764H41.6342V29.4004H40.3373C40.0347 29.4004 39.7732 29.1891 39.7096 28.8933C39.4586 27.7253 38.9975 26.6125 38.3487 25.6093C38.1844 25.3551 38.2199 25.0208 38.4339 24.8068L39.3465 23.8941L37.0998 21.6492L36.1879 22.561C35.9739 22.775 35.6395 22.8105 35.3854 22.6461C34.3821 21.9974 33.2693 21.5363 32.1013 21.2854C31.8054 21.2218 31.5941 20.9603 31.5941 20.6578V19.3684H28.4179ZM30.006 26.4563C27.4993 26.4563 25.4672 28.4882 25.4672 30.9948C25.4672 33.5014 27.4993 35.5334 30.006 35.5334C32.5127 35.5334 34.5448 33.5014 34.5448 30.9948C34.5448 28.4882 32.5127 26.4563 30.006 26.4563ZM24.1832 30.9948C24.1832 27.7791 26.7902 25.1724 30.006 25.1724C33.2218 25.1724 35.8288 27.7791 35.8288 30.9948C35.8288 34.2105 33.2218 36.8173 30.006 36.8173C26.7902 36.8173 24.1832 34.2105 24.1832 30.9948ZM19.3289 42.8127C18.6882 42.172 17.6494 42.172 17.0087 42.8127C16.368 43.4534 16.368 44.4921 17.0087 45.1328C17.6494 45.7735 18.6882 45.7735 19.3289 45.1328C19.9696 44.4921 19.9696 43.4534 19.3289 42.8127Z" fill="#E65069"/>
</g>
<defs>
<clipPath id="clip0_437_1069">
<rect width="36.5217" height="36.5199" fill="white" transform="translate(11.7383 12.7355)"/>
</clipPath>
</defs>
</svg>

<svg width="60" height="61" fill="none" xmlns="http://www.w3.org/2000/svg"><rect y=".997" width="60" height="59.997" rx="13.047" fill="#E65069" fill-opacity=".1"/><g clip-path="url(#clip0_437_1069)"><path fill-rule="evenodd" clip-rule="evenodd" d="M30.006 12.806c1.216 0 2.429.12 3.62.36a.642.642 0 1 1-.253 1.26 16.984 16.984 0 0 0-3.367-.336c-9.337 0-16.906 7.569-16.906 16.905 0 3.942 1.35 7.567 3.61 10.442a2.926 2.926 0 1 1-.947.872 18.113 18.113 0 0 1-3.947-11.314c0-10.045 8.144-18.189 18.19-18.189m12.997 4.05a1.64 1.64 0 1 0-2.32 2.322 1.64 1.64 0 0 0 2.32-2.321zm-3.228-.907a2.925 2.925 0 0 1 4.474 3.732 18.113 18.113 0 0 1 3.946 11.314c0 10.045-8.143 18.188-18.189 18.188-1.204.001-2.405-.117-3.586-.353a.642.642 0 0 1 .25-1.26c1.099.22 2.216.33 3.335.33 9.337 0 16.906-7.569 16.906-16.905 0-3.942-1.348-7.567-3.61-10.442a2.926 2.926 0 0 1-3.526-4.604zm-12.641 2.777c0-.354.287-.642.642-.642h4.46c.355 0 .642.288.642.642v1.426c.967.255 1.896.64 2.76 1.143l1.008-1.007c.25-.251.657-.251.907 0l3.155 3.152a.642.642 0 0 1 0 .908L39.7 25.357a11.15 11.15 0 0 1 1.143 2.76h1.433c.355 0 .642.287.642.641v4.46a.642.642 0 0 1-.642.642h-1.432c-.256.967-.64 1.896-1.144 2.76l1.014 1.014c.25.25.25.657 0 .908l-3.153 3.155a.642.642 0 0 1-.908 0l-1.015-1.015a11.15 11.15 0 0 1-2.76 1.143v1.438a.642.642 0 0 1-.642.642h-4.46a.642.642 0 0 1-.642-.642v-1.438a11.15 11.15 0 0 1-2.76-1.143l-1.015 1.015a.642.642 0 0 1-.908 0l-3.153-3.155a.642.642 0 0 1 0-.908l1.014-1.014a11.147 11.147 0 0 1-1.143-2.76h-1.433a.642.642 0 0 1-.642-.642l.002-4.46c0-.354.288-.642.642-.642h1.43a11.15 11.15 0 0 1 1.144-2.76l-1.009-1.008a.642.642 0 0 1 0-.908l3.156-3.153c.25-.25.657-.25.907 0l1.008 1.008a11.147 11.147 0 0 1 2.76-1.143v-1.426zm1.284.642v1.29a.642.642 0 0 1-.507.627 9.864 9.864 0 0 0-3.284 1.361.642.642 0 0 1-.803-.085l-.912-.912-2.246 2.245.912.913c.214.214.25.548.085.802a9.863 9.863 0 0 0-1.36 3.284.642.642 0 0 1-.628.507H18.38l-.002 3.176h1.297c.302 0 .564.212.627.508a9.866 9.866 0 0 0 1.361 3.284.642.642 0 0 1-.085.802l-.918.918 2.245 2.247.919-.92a.642.642 0 0 1 .802-.084 9.864 9.864 0 0 0 3.285 1.36.642.642 0 0 1 .507.628v1.302h3.176V41.32c0-.302.211-.564.507-.627a9.864 9.864 0 0 0 3.285-1.361.642.642 0 0 1 .802.085l.919.919 2.245-2.247-.918-.918a.642.642 0 0 1-.085-.802 9.866 9.866 0 0 0 1.36-3.285.642.642 0 0 1 .628-.507h1.297V29.4h-1.297a.642.642 0 0 1-.627-.507 9.863 9.863 0 0 0-1.361-3.284.642.642 0 0 1 .085-.802l.913-.913L37.1 21.65l-.912.912a.642.642 0 0 1-.803.085 9.864 9.864 0 0 0-3.284-1.36.642.642 0 0 1-.507-.628v-1.29h-3.176zm1.588 7.088a4.539 4.539 0 1 0 0 9.078 4.539 4.539 0 0 0 0-9.078zm-5.823 4.539a5.823 5.823 0 1 1 11.645 0 5.823 5.823 0 0 1-11.645 0zM19.33 42.813a1.64 1.64 0 1 0-2.32 2.32 1.64 1.64 0 0 0 2.32-2.32z" fill="#E65069"/></g><defs><clipPath id="clip0_437_1069"><path fill="#fff" transform="translate(11.738 12.736)" d="M0 0h36.522v36.52H0z"/></clipPath></defs></svg>
